public/img/assets/icons/weather-conditions/snow-showers-night.svg

<svg width="120" height="120" viewBox="0 0 120 120" fill="none" xmlns="http://www.w3.org/2000/svg">
<path fill-rule="evenodd" clip-rule="evenodd" d="M59 17.7364C66.4272 21.6849 71.4844 29.5019 71.4844 38.5C71.4844 47.4981 66.4272 55.3151 59 59.2636C62.2856 61.0103 66.035 62 70.0156 62C82.9943 62 93.5156 51.4787 93.5156 38.5C93.5156 25.5213 82.9943 15 70.0156 15C66.035 15 62.2856 15.9897 59 17.7364Z" fill="#D580FF"/>
<path d="M84.1875 49.6C84.0949 49.6 84.0178 49.6306 83.9406 49.6306C84.1103 48.8344 84.1875 48.0075 84.1875 47.15C84.1875 40.3819 78.6637 34.9 71.8438 34.9C68.048 34.9 64.6998 36.6303 62.4316 39.31C59.5617 33.7975 53.8373 30 47.1563 30C37.6053 30 29.875 37.6716 29.875 47.15C29.875 48.2678 29.9984 49.3397 30.199 50.3963C24.2895 52.3256 20 57.7922 20 64.3C20 72.4156 26.6348 79 34.8125 79H84.1875C92.3652 79 99 72.4156 99 64.3C99 56.1844 92.3652 49.6 84.1875 49.6Z" fill="#FF99FF"/>
<path fill-rule="evenodd" clip-rule="evenodd" d="M90.0462 50.7956C88.2491 50.0263 86.2682 49.6 84.1875 49.6C84.1391 49.6 84.0949 49.6084 84.0528 49.6164C84.0143 49.6237 83.9774 49.6306 83.9406 49.6306C84.1104 48.8344 84.1875 48.0075 84.1875 47.15C84.1875 40.3819 78.6637 34.9 71.8438 34.9C71.632 34.9 71.4217 34.9054 71.2128 34.916C71.3916 36.0846 71.4844 37.2815 71.4844 38.5C71.4844 47.4981 66.4272 55.3151 59 59.2636C62.2856 61.0103 66.035 62 70.0156 62C78.4868 62 85.911 57.5178 90.0462 50.7956Z" fill="#9966FF"/>
<rect x="53.8407" y="71" width="3.04385" height="13" rx="1" fill="#D580FF"/>
<rect width="3.05509" height="12.9523" rx="1" transform="matrix(0.498161 -0.867085 0.86496 0.501841 49 75.5745)" fill="#D580FF"/>
<rect width="3.05509" height="12.9523" rx="1" transform="matrix(-0.498161 -0.867085 -0.86496 0.501841 62 75.1784)" fill="#D580FF"/>
<path fill-rule="evenodd" clip-rule="evenodd" d="M61.2116 79L58.2026 77.2628L61.134 75.5703C61.6123 75.2941 61.7762 74.6825 61.5001 74.2043L60.9781 73.3003C60.702 72.822 60.0904 72.6581 59.6121 72.9342L56.8845 74.509V71.9123C56.8845 71.36 56.4368 70.9123 55.8845 70.9123H54.8407C54.2884 70.9123 53.8407 71.36 53.8407 71.9123V74.7444L51.388 73.3284C50.9097 73.0522 50.2981 73.2161 50.022 73.6944L49.5001 74.5984C49.2239 75.0767 49.3878 75.6883 49.8661 75.9644L52.1149 77.2628L49.2749 78.9024L49.3312 79H61.2116Z" fill="#9966FF"/>
<rect x="37.8407" y="88" width="3.04385" height="13" rx="1" fill="#D580FF"/>
<rect width="3.05509" height="12.9523" rx="1" transform="matrix(0.498161 -0.867085 0.86496 0.501841 33 92.5745)" fill="#D580FF"/>
<rect width="3.05509" height="12.9523" rx="1" transform="matrix(-0.498161 -0.867085 -0.86496 0.501841 46 92.1784)" fill="#D580FF"/>
<rect x="69.8407" y="88" width="3.04385" height="13" rx="1" fill="#D580FF"/>
<rect width="3.05509" height="12.9523" rx="1" transform="matrix(0.498161 -0.867085 0.86496 0.501841 65 92.5745)" fill="#D580FF"/>
<rect width="3.05509" height="12.9523" rx="1" transform="matrix(-0.498161 -0.867085 -0.86496 0.501841 78 92.1784)" fill="#D580FF"/>
</svg>

<svg width="120" height="120" fill="none" xmlns="http://www.w3.org/2000/svg"><path fill-rule="evenodd" clip-rule="evenodd" d="M59 17.736c7.427 3.949 12.484 11.766 12.484 20.764S66.427 55.315 59 59.264A23.397 23.397 0 0 0 70.016 62c12.978 0 23.5-10.521 23.5-23.5S82.994 15 70.016 15c-3.981 0-7.73.99-11.016 2.736Z" fill="#D580FF"/><path d="M84.188 49.6c-.093 0-.17.03-.247.03.17-.796.246-1.623.246-2.48 0-6.768-5.523-12.25-12.343-12.25-3.796 0-7.144 1.73-9.412 4.41-2.87-5.513-8.595-9.31-15.276-9.31-9.55 0-17.281 7.672-17.281 17.15 0 1.118.123 2.19.324 3.246C24.289 52.326 20 57.792 20 64.3 20 72.416 26.635 79 34.813 79h49.374C92.365 79 99 72.416 99 64.3s-6.635-14.7-14.813-14.7Z" fill="#F9F"/><path fill-rule="evenodd" clip-rule="evenodd" d="M90.046 50.796a14.853 14.853 0 0 0-5.859-1.196c-.048 0-.092.008-.134.016a.608.608 0 0 1-.112.015c.17-.797.246-1.623.246-2.481 0-6.768-5.523-12.25-12.343-12.25-.212 0-.422.005-.631.016.179 1.169.271 2.366.271 3.584 0 8.998-5.057 16.815-12.484 20.764A23.397 23.397 0 0 0 70.016 62c8.47 0 15.895-4.482 20.03-11.204Z" fill="#96F"/><rect x="53.841" y="71" width="3.044" height="13" rx="1" fill="#D580FF"/><rect width="3.055" height="12.952" rx="1" transform="matrix(.49816 -.86708 .86496 .50184 49 75.575)" fill="#D580FF"/><rect width="3.055" height="12.952" rx="1" transform="matrix(-.49816 -.86708 -.86496 .50184 62 75.178)" fill="#D580FF"/><path fill-rule="evenodd" clip-rule="evenodd" d="m61.212 79-3.01-1.737 2.932-1.693a1 1 0 0 0 .366-1.366l-.522-.904a1 1 0 0 0-1.366-.366l-2.727 1.575v-2.597a1 1 0 0 0-1-1H54.84a1 1 0 0 0-1 1v2.832l-2.453-1.416a1 1 0 0 0-1.366.366l-.522.904a1 1 0 0 0 .366 1.366l2.249 1.299-2.84 1.64.056.097h11.88Z" fill="#96F"/><rect x="37.841" y="88" width="3.044" height="13" rx="1" fill="#D580FF"/><rect width="3.055" height="12.952" rx="1" transform="matrix(.49816 -.86708 .86496 .50184 33 92.575)" fill="#D580FF"/><rect width="3.055" height="12.952" rx="1" transform="matrix(-.49816 -.86708 -.86496 .50184 46 92.178)" fill="#D580FF"/><rect x="69.841" y="88" width="3.044" height="13" rx="1" fill="#D580FF"/><rect width="3.055" height="12.952" rx="1" transform="matrix(.49816 -.86708 .86496 .50184 65 92.575)" fill="#D580FF"/><rect width="3.055" height="12.952" rx="1" transform="matrix(-.49816 -.86708 -.86496 .50184 78 92.178)" fill="#D580FF"/></svg>
